X:1
T:Stone's Rag
M:2/4
L:1/16
K:C
"C"cdeg- gage|ageg- gag2|"F"FGAc- cdcA|"(D)"dcAc- cdcA|!
"G"BdBG- G^FGA|BdBG- G^FG2|1"C"cdeg- gage|g4 "G"e4:|2g^fga- age2|"C"c4z4||!
"A"agea- age2|agea- age2|"D"dcAd- e9b dcA2|dcAd- dcA2|!
"G"BdBG- G^FGA|BdBG- G^FG2|"C"cdeg- gage|g4 "E"^g4|!
"A"a=gea- age2|agea- age2|"D"dcAd- dcA2|dcAd- dcA2|!
"Cdim"c'4 a4|"C"gage- edcA|"D"GAce- "G"ecd2|"C"c8|]
